!!!OTL: SAG BRUDER WAS IST DIR
!!!ARE: Europa, Mitteleuropa, Deutschland
!!!SCT: F0509
!!!YEM: Copyright 1995, estate of Helmut Schaffrath.
**kern
*ICvox
*Ivox
*M2/4
*k[f#]
*G:
{8d
=1
4g
8d
8g
=2
8b
8b
8g}
{8b
=3
4dd
8dd
8dd
=4
8dd
8cc
8b}
{8a
=5
8g
8g
8d
8g
=6
4b
8g}
{8b
=7
8dd
8dd
8dd
8dd
=8
8dd
8cc
16b
16r}
{8a
=9
4g
8d
8g
=10
4b
8g}
{8b
=11
4dd
4dd
=12
8dd
8cc
8b}
{8a
=13
4g
8d
8g
=14
4b
8g}
{8b
=15
4dd
8dd
8dd
=16
4dd
8r}
{8b
=17
8a
8g
8f#
8g
=18
4a
8r}
{8b
=19
8a
8g
8f#
8g
=20
4a
8r}
{8d
=21
8g
8a
8b
8cc
=22
8.dd
16ee
8dd}
{8cc
=23
8b
8a
8b
8cc
=24
8.dd
16ee
8dd}
{8cc
=25
8b
8a
8b
8cc
=26
8dd
8r}
{4ee
=27
8dd
8cc
8b
8a
=28
4g
8r}
==
!!!AGN: Studenten -, Trink - Lied
!!!ONB: ESAC (Essen Associative Code) Database: FINK
!!!AMT: simple duple
!!!AIN: vox
!!!EED: Helmut Schaffrath
!!!EEV: 1.0
*-
